X: 28
T: Sligo Maid
M:C
R:reel
L:1/8
K:Ador
"A5"A2 BA (3B^cd ef| "(G)"gedB "(D)"AGEF|"G" ~G2 BG dGBG|"D" DEGA BAdB|
"A5"A2 BA (3B^cd ef| "(G)"gedB "(D)"AGEG| "G"~B3 G "(Am)"(3AAA GE |"D" DEGA BA A2 :|
|:"Am" eaag ~a2 ga| bgaf gfed|"G" eggf ~g2 ge|"D" dega bgag|
"Am"eaag ~a2 ga| bgaf gfed|"G" eg ~g2 edBc|"G" dBgB "D"BA A2 :|


